X: 25
T: The Kesh
R: jig
M: 6/8
L: 1/8
K: Gmaj
|:G3 GAB|A3 ABd|edd gdd|BAB dBA|
GAG GAB|ABA ABd|edd gdd|BAF G3:|
|:B2B dBd|ege dBA|B2B dBG|ABA AGA|
BAB dBd|ege dBd|gfg aga|bgf g3:|

